storage/app/icons/phosphoricons/duotone/arrow-square-out-duotone.svg

<svg xmlns="http://www.w3.org/2000/svg" fill="currentColor" viewBox="0 0 256 256"><path d="M184 80v128a8 8 0 0 1-8 8H48a8 8 0 0 1-8-8V80a8 8 0 0 1 8-8h128a8 8 0 0 1 8 8" opacity=".2"/><path d="M224 104a8 8 0 0 1-16 0V59.32l-66.33 66.34a8 8 0 0 1-11.32-11.32L196.68 48H152a8 8 0 0 1 0-16h64a8 8 0 0 1 8 8Zm-40 24a8 8 0 0 0-8 8v72H48V80h72a8 8 0 0 0 0-16H48a16 16 0 0 0-16 16v128a16 16 0 0 0 16 16h128a16 16 0 0 0 16-16v-72a8 8 0 0 0-8-8"/></svg>

<svg xmlns="http://www.w3.org/2000/svg" viewBox="0 0 256 256" fill="currentColor"><path d="M184,80V208a8,8,0,0,1-8,8H48a8,8,0,0,1-8-8V80a8,8,0,0,1,8-8H176A8,8,0,0,1,184,80Z" opacity="0.2"/><path d="M224,104a8,8,0,0,1-16,0V59.32l-66.33,66.34a8,8,0,0,1-11.32-11.32L196.68,48H152a8,8,0,0,1,0-16h64a8,8,0,0,1,8,8Zm-40,24a8,8,0,0,0-8,8v72H48V80h72a8,8,0,0,0,0-16H48A16,16,0,0,0,32,80V208a16,16,0,0,0,16,16H176a16,16,0,0,0,16-16V136A8,8,0,0,0,184,128Z"/></svg>
